icon-themes/sifr_svg/cmd/sc_definename.svg

<svg viewBox="0 0 16 16" xmlns="http://www.w3.org/2000/svg"><path d="m1 3c-.554 0-1 .446-1 1v9c0 .554.446 1 1 1h14c.554 0 1-.446 1-1v-9c0-.554-.446-1-1-1zm8 2h1v2h2c1.10457 0 2 1.1 2 2.5 0 1.380712-.9 2.513443-2 2.5h-2-1zm-6 2h3c.552285 0 1 .447715 1 1v4h-.5-3c-.828427 0-1.5-.671573-1.5-1.5s.671573-1.5 1.5-1.5h2.5v-1h-3zm7 1v3h2c.552285 0 1-.671573 1-1.5s-.447756-1.5-1-1.5zm-6.5 2c-.276142 0-.5.223858-.5.5s.223858.5.5.5h2.5v-1z" fill="#555753"/></svg>

<svg xmlns="http://www.w3.org/2000/svg" viewBox="0 0 16 16">
  <path
     style="fill:#555753"
     d="M 1,3 C 0.446,3 0,3.446 0,4 v 9 c 0,0.554 0.446,1 1,1 h 14 c 0.554,0 1,-0.446 1,-1 V 4 C 16,3.446 15.554,3 15,3 Z m 8,2 h 1 v 2 h 2 c 1.10457,0 2,1.1 2,2.5 0,1.380712 -0.9,2.513443 -2,2.5 H 10 9 Z M 3,7 h 3 c 0.552285,0 1,0.447715 1,1 v 4 H 6.5 3.5 C 2.671573,12 2,11.328427 2,10.5 2,9.671573 2.671573,9 3.5,9 H 6 V 8 H 3 Z m 7,1 v 3 h 2 c 0.552285,0 1,-0.671573 1,-1.5 C 13,8.671573 12.552244,8 12,8 Z M 3.5,10 C 3.223858,10 3,10.223858 3,10.5 3,10.776142 3.223858,11 3.5,11 H 6 v -1 z"
     />
</svg>
